X:17
T: NUN ADE DU MEIN LIEB HEIMATLAND
N: B0503
O: Europa, Mitteleuropa, Deutschland
R: Abschieds - Lied
M: 2/4
L: 1/16
K: D
DF | A2A2A2B2 | A3FD2
BA | A3GG2A2 | F4z2
DF | A2A2A2B2 | A3FD2
BA | A3GG2A2 | F4z2
DF | E2G2G2G2 | F3Ad2
cd | e2d2c2B2 | B3AA2
BA | A3GG2A2 | F6

@@@ Tune index: 2235
